app/style/icons/add.svg

<svg enable-background="new 0 0 38 38" height="38" viewBox="0 0 38 38" width="38" xmlns="http://www.w3.org/2000/svg"><path clip-rule="evenodd" d="m28.59 38h-19.178c-5.174 0-9.412-4.314-9.412-9.589v-18.822c0-5.275 4.238-9.589 9.412-9.589h19.178c5.176 0 9.41 4.314 9.41 9.589v18.822c0 5.275-4.234 9.589-9.41 9.589z" fill="#2970ff" fill-rule="evenodd"/><path d="m24.887 20.286h-4.742v4.832h-2.49v-4.832h-4.768v-2.547h4.768v-4.859h2.49v4.859h4.742z" fill="#fff"/></svg>

<?xml version="1.0" encoding="utf-8"?>
<!-- Generator: Adobe Illustrator 16.0.0, SVG Export Plug-In . SVG Version: 6.00 Build 0)  -->
<!DOCTYPE svg PUBLIC "-//W3C//DTD SVG 1.1//EN" "http://www.w3.org/Graphics/SVG/1.1/DTD/svg11.dtd">
<svg version="1.1" id="Layer_1" xmlns="http://www.w3.org/2000/svg" xmlns:xlink="http://www.w3.org/1999/xlink" x="0px" y="0px"
	 width="38px" height="38px" viewBox="0 0 38 38" enable-background="new 0 0 38 38" xml:space="preserve">
<g>
	<g id="XMLID_60_">
		<path fill-rule="evenodd" clip-rule="evenodd" fill="#2970FF" d="M28.59,38H9.412C4.238,38,0,33.686,0,28.411V9.589
			C0,4.314,4.238,0,9.412,0H28.59C33.766,0,38,4.314,38,9.589v18.822C38,33.686,33.766,38,28.59,38z"/>
	</g>
	<g id="XMLID_57_">
		<path id="XMLID_58_" fill="#FFFFFF" d="M24.887,20.286h-4.742v4.832h-2.49v-4.832h-4.768v-2.547h4.768V12.88h2.49v4.859h4.742
			V20.286z"/>
	</g>
</g>
<g>
</g>
<g>
</g>
<g>
</g>
<g>
</g>
<g>
</g>
<g>
</g>
<g>
</g>
<g>
</g>
<g>
</g>
<g>
</g>
<g>
</g>
<g>
</g>
<g>
</g>
<g>
</g>
<g>
</g>
</svg>
